X: 342
T:Big Pat's Reel
M:C|
L:1/8
R:Reel
Z:bil
K:G
(dc)|BGEFG2(BG)|G2(BG) (FA)D2|BGEFG2(Bd)|g2(fg)e2(dc)|BGEFG2(BG)|G2(BG)
(FA)D2|BGEF GAB^d|egfge2||(ef)|gfga bgag|(fa)ag (fd) dz|gfga
bgag|fe^dfe2(ef)|gfga bgag|(fa)ag (fd) dz|g2(ge)f2(fd)|egfge2||
<end>
<start>
